X:1
T: The Boys of the Town
P:Roche version
R:Jig
Q:180
K:G
M:6/8
L:1/16
|:d2|g2e2d2 B4A2|B2G2D2 G4A2|B2d2B2 A2G2A2|G2B2d2 e2f2g2|
g2e2d2 B4A2|B2G2D2 G4A2|B2d2B2 A2G2A2|B2G2G2 G4:|
|:B2|d2e2f2 g2f2g2|e2a2a2 e2a2a2|b2a2g2 e4d2|e2g2g2 e2g2g2|
d2e2f2 g2f2g2|a2f2d2 e2f2g2|e2d2B2 A2G2A2|B2G2G2 G4:|
